X:11    
T:La marine
C:G. Brassens
I:From a poem by Paul Fort
Q:1/4=160
M:3/4
K:Em %Transposed from Ab
z2 E2 F2 ||"Em"G6 |E2 A2 G2 |"D"F6 |
F2 G2 F2 |"C"E4 D2 |"Am"C4 "Bm"D2 |"Em"E6 |
E2 E2 F2 |G6 |E2 A2 G2 |"D"F6 |
F2 G2 F2 |"C"E4 D2 |"Am"C4 "Bm"D2 |"Em"E6 |
E2 ^G2 A2 |"E7"B6 |^G2 A2 B2 |"Am"c4 A2 |
A2 A2 B2 |c4 c2 |"D7"d4 c2 |"G"B6 |
B2 G2 A2 |"Em"B6 |G2 c2 B2 |"Am"A6 |
A6 |1"C7"G2 G2 G2 |G2 A2 G2 |"B9"F6 |
"B7"F2 E2 F2 :|2"Cm"G2 A2 G2 |"B7"F2 G2 F2 |"Em"E2 z2 z2 ||
